static/logos/wise-wordmark-color.svg

<svg width="100" height="25" viewBox="0 0 100 25" fill="none" xmlns="http://www.w3.org/2000/svg">
<path d="M98.9164 10.7617C98.9164 5.07768 94.9566 1.07996 89.4053 1.07996C82.3382 1.07996 77.6016 6.21448 77.6016 13.5468C77.6016 19.2687 81.5993 23.2285 87.2454 23.2285C92.3799 23.2285 96.2071 20.7465 97.7797 16.7867H92.0767C91.3189 18.0182 89.7084 18.795 87.738 18.795C84.7065 18.795 82.8119 16.7867 82.6414 13.9447H98.5944C98.8028 12.8647 98.9164 11.9363 98.9164 10.7617ZM83.0771 10.0985C83.5887 7.4839 86.1275 5.39977 89.1969 5.39977C91.8494 5.39977 93.8577 7.33232 93.8577 10.0985H83.0771Z" fill="#2E4369"/>
<path d="M62.2734 22.7169L63.2966 17.2603C66.4227 17.8856 66.8964 16.1235 67.7111 11.8795L68.109 9.77644C69.2458 3.84616 71.5383 0.8905 78.0938 1.68626L77.0707 7.14287C73.9445 6.51763 73.3951 8.88595 72.6941 12.5616L72.2962 14.6647C71.1594 20.6707 68.7911 23.5127 62.2734 22.7169Z" fill="#2E4369"/>
<path d="M54.6172 22.7359L58.4823 1.59155H63.5789L59.7328 22.7359H54.6172Z" fill="#2E4369"/>
<path d="M25.4219 1.59155H30.3669L31.9774 16.8814L38.4571 1.59155H43.3643L45.0884 17.033L51.3408 1.59155H56.2669L47.3052 22.7359H41.697L39.8781 8.18496L33.6826 22.7359H28.2639L25.4219 1.59155Z" fill="#2E4369"/>
<path d="M6.95156 7.19974L1.07812 12.8079H11.063L12.105 10.3638H7.0463L10.2104 7.19974L8.37256 4.03566H16.9554L9.03569 22.7359H12.0103L20.972 1.59155H3.65486L6.95156 7.19974Z" fill="#00B9FF"/>
</svg>

<svg xmlns="http://www.w3.org/2000/svg" width="256" height="64" fill="none" viewBox="0 0 100 25"><path fill="#2E4369" d="M98.916 10.762c0-5.684-3.96-9.682-9.51-9.682-7.068 0-11.804 5.134-11.804 12.467 0 5.722 3.997 9.681 9.643 9.681 5.135 0 8.962-2.482 10.535-6.441h-5.703c-.758 1.231-2.369 2.008-4.339 2.008-3.031 0-4.926-2.008-5.097-4.85h15.953c.209-1.08.322-2.009.322-3.183Zm-15.839-.664c.512-2.614 3.05-4.698 6.12-4.698 2.652 0 4.66 1.932 4.66 4.698h-10.78ZM62.273 22.717l1.024-5.457c3.126.626 3.6-1.137 4.414-5.38l.398-2.104c1.137-5.93 3.43-8.886 9.985-8.09L77.07 7.143c-3.126-.625-3.676 1.743-4.377 5.419l-.398 2.103c-1.137 6.006-3.505 8.848-10.023 8.052ZM54.617 22.736l3.865-21.144h5.097l-3.846 21.144h-5.116ZM25.422 1.592h4.945l1.61 15.29 6.48-15.29h4.907l1.724 15.441 6.253-15.441h4.926l-8.962 21.144h-5.608L39.878 8.185l-6.195 14.55h-5.42L25.423 1.593Z"/><path fill="#00B9FF" d="m6.952 7.2-5.874 5.608h9.985l1.042-2.444H7.046L10.21 7.2 8.373 4.036h8.582l-7.92 18.7h2.975l8.962-21.144H3.655L6.952 7.2Z"/></svg>
